Pods/ProtonCore-UIFoundations/libraries/UIFoundations/Sources/Assets.xcassets/Images/IconSet/ic-arrow-down-line.imageset/ic-arrow-down-line.svg

<svg width="24" height="24" viewBox="0 0 24 24" fill="none" xmlns="http://www.w3.org/2000/svg">
<path fill-rule="evenodd" clip-rule="evenodd" d="M11.2474 15.4365L6.53033 10.7193C6.23744 10.4265 5.76256 10.4265 5.46967 10.7193C5.17678 11.0122 5.17678 11.4871 5.46967 11.78L11.4697 17.78C11.7626 18.0729 12.2374 18.0729 12.5303 17.78L18.5303 11.78C18.8232 11.4871 18.8232 11.0122 18.5303 10.7193C18.2374 10.4265 17.7626 10.4265 17.4697 10.7193L12.7474 15.4416L12.7474 2.25195C12.7474 1.83774 12.4116 1.50195 11.9974 1.50195C11.5832 1.50195 11.2474 1.83774 11.2474 2.25195L11.2474 15.4365ZM3 20.2497C3 19.8355 3.33579 19.4997 3.75 19.4997H20.25C20.6642 19.4997 21 19.8355 21 20.2497C21 20.6639 20.6642 20.9997 20.25 20.9997H3.75C3.33579 20.9997 3 20.6639 3 20.2497Z" fill="#0C0C14"/>
</svg>

<svg xmlns="http://www.w3.org/2000/svg" width="24" height="24" viewBox="0 0 24 24">
  <g class="ic-arrow-down-line">
    <path fill-rule="evenodd" d="M11.247 15.437 6.53 10.719a.75.75 0 0 0-1.06 1.061l6 6a.75.75 0 0 0 1.06 0l6-6a.75.75 0 0 0-1.06-1.06l-4.723 4.722V2.252a.75.75 0 0 0-1.5 0v13.185ZM3 20.25a.75.75 0 0 1 .75-.75h16.5a.75.75 0 0 1 0 1.5H3.75a.75.75 0 0 1-.75-.75Z" class="Icon"/>
  </g>
</svg>
